X: 1
T: S\aa g\aar jag h\"ar i ringen och ser upp\aa dej
M: 2/4
L: 1/8
K: D
A | "D"Ad d>d | d2 f>d | "A7"e2 A>A A2 z
A | "A7"A>e ee | e2 a>g | "D"f2 d>d | d2 z
A | "D"d2 fd | "A7"ce A>c | "A7"e2 g>e | "D"db a>
A | "D"d2 fd | "A7"ce A>c | "A7"e2 g>f | "D"d2 z |]
